swift.svg

<?xml version="1.0" encoding="UTF-8"?>
<svg viewBox="0 0 8 8" version="1.1" xmlns="http://www.w3.org/2000/svg" xmlns:xlink="http://www.w3.org/1999/xlink">
    <title>Swift</title>
    <g id="Page-1" stroke="none" stroke-width="1" fill="none" fill-rule="evenodd">
        <path d="M7.29451041,5.47151504 C7.29426062,5.47119387 7.29402867,5.47096193 7.29376104,5.47065861 C7.30548341,5.4307633 7.31758046,5.39111779 7.32783977,5.35022332 C7.7676516,3.59795229 6.69424309,1.52628688 4.87781128,0.4355 C5.67380826,1.51458236 6.02576478,2.82159965 5.71306124,3.96461084 C5.68517378,4.06656155 5.65164816,4.16440853 5.61458978,4.2595078 C5.57437331,4.23308341 5.52370128,4.20309056 5.45565088,4.16556828 C5.45565088,4.16556828 3.64878252,3.04994496 1.69043334,1.07667964 C1.63904762,1.02488355 2.73470544,2.64269526 3.97815074,3.9564034 C3.39231781,3.62762398 1.75967917,2.43973949 0.726112433,1.49376043 C0.853095834,1.70553028 1.00413061,1.90944953 1.17015289,2.10576797 C2.03327247,3.2003731 3.15888745,4.55094336 4.5074237,5.58802503 C3.55992804,6.16786296 2.22109799,6.21295037 0.888084516,5.58863166 C0.558377298,5.43411765 0.248421467,5.24768382 -0.0385,5.03586045 C0.525761637,5.93841143 1.39480485,6.71711925 2.45251217,7.17172233 C3.71387111,7.71378819 4.96820019,7.67703312 5.9024212,7.18060778 L5.90168967,7.18167831 C5.90595397,7.17898413 5.91137802,7.17604016 5.9158029,7.17331029 C5.95416377,7.15268463 5.99223916,7.13168428 6.02947597,7.10950635 C6.47833384,6.87652205 7.36491599,6.64014772 7.84078705,7.56605423 C7.95733272,7.792651 8.20498336,6.59179518 7.29451041,5.47151504 Z" id="Swift" fill="#F05138" fill-rule="nonzero"></path>
    </g>
</svg>

<svg viewBox="0 0 8 8" xmlns="http://www.w3.org/2000/svg"><path d="m7.295 5.472-.001-.001c.011-.04.024-.08.034-.12.44-1.753-.634-3.825-2.45-4.915.796 1.079 1.148 2.386.835 3.529-.028.102-.061.2-.098.295a2.43 2.43 0 0 0-.16-.094S3.65 3.05 1.69 1.076c-.051-.051 1.045 1.567 2.288 2.88C3.392 3.628 1.76 2.44.726 1.494c.127.212.278.415.444.612C2.033 3.2 3.16 4.55 4.507 5.588c-.947.58-2.286.625-3.619 0-.33-.154-.64-.34-.926-.552a5.55 5.55 0 0 0 2.49 2.136c1.262.542 2.516.505 3.45.009l.014-.008c.038-.02.076-.041.113-.063.45-.233 1.336-.47 1.812.456.116.227.364-.974-.546-2.094Z" fill="#F05138" fill-rule="nonzero"/></svg>
